!!!COM: Bach, Johann Sebastian
!!!OPR: Joh. Seb. Bachs vierstimmige Choralges‰nge
!!!XEN: Four-part Chorales
!!!OTL: 165. Von Gott will ich nicht lassen
!!!SCT: BWV 418
!!!SCA: Thematisch-systematisches Verzeichnis der musikalischen Werke Johann Sebastian Bach: Bach-Werke-Verzeichnis (Schmieder)
!!!YOR: Bach Gesellschaft Edition xxxix
!!!ENC: Steven Rasmussen
!!!CDT: 1685/3//-1750/7/28/
!!!OCY: Deutschland
!!!YEC: Copyright (c) 1994, 2000 Center for Computer Assisted Research in the Humanities
!!!YEM: Rights to all derivative editions reserved
!!!YEN: United States of America
**kern	**silbe	**kern	**kern	**kern
*I:[SOPRANO]	*I:[SOPRANO]	*I:[ALTO]	*I:[TENORE]	*I:[BASSO]
*clefG2	*	*clefG2	*clefGv2	*clefF4
*k[]	*	*k[]	*k[]	*k[]
*a:	*	*a:	*a:	*a:
*M4/4	*	*M4/4	*M4/4	*M4/4
4e	Von	8cL	8AL	4AA
.	.	8dJ	8BJ	.
=1	=1	=1	=1	=1
4a	Gott	4e	4c	4A
4b	will	4e	4B	4G#
4cc	ich	4e	4A	8AL
.	.	.	.	8GnJ
4dd	nicht	4d	4A	4F#
=2	=2	=2	=2	=2
4.b	las-	8dL	2B	4G
.	.	8eJ	.	.
.	.	4f#	.	4D#
8a	.	.	.	.
4g;	-sen,	4e;	4B;	4E;
4g	denn	4e	4c	4C
=3	=3	=3	=3	=3
4a	er	4e	8cL	4F
.	.	.	8BJ	.
4a	l√§sst	4d	4A	4F#
4b	nicht	8dL	8GL	4G
.	.	8fJ	8AJ	.
4b	von	8eL	4B	4G#
.	.	8dJ	.	.
=4	=4	=4	=4	=4
2.e;	mir,	2.c;	2.A;	2.A;
4e	f√ºhrt	4B	4G#	8EL
.	.	.	.	8DJ
=5	=5	=5	=5	=5
4a	mich	4e	4A	4C
4b	auf	8f#L	4d	4BB
.	.	8g#J	.	.
4cc	rech-	4a	4e	8AAL
.	.	.	.	8GJ
8ddL	-ter	8aL	4A	8FL
8ccJ	.	8gnJ	.	8EJ
=6	=6	=6	=6	=6
4.b	Stra-	8fL	8AL	8DL
.	.	8eJ	8G#J	8EJ
.	.	4d	4A	4F
8a	.	.	.	.
4g;	-ssen,	4e;	4B;	4E;
4g	da	4d	4B	4BB
=7	=7	=7	=7	=7
4a	ich	4e	8AL	4C
.	.	.	8BJ	.
4a	sonst	4e	8AL	4C#
.	.	.	8GJ	.
4b	ir-	8dL	8F#L	4D
.	.	8eJ	8GJ	.
4b	-ret	4f#	4A	4D#
=8	=8	=8	=8	=8
2.e;	sehr.	2.B;	2.G#;	2.E;
4ee	Er	4c	4A	8AL
.	.	.	.	8GJ
=9	=9	=9	=9	=9
4dd	reicht	4a	4A	4F
4cc	mir	4a	4d	4F#
4cc	sei-	4g	8dL	4G
.	.	.	8eJ	.
4b	-ne	4g	8fL	4GG
.	.	.	8dJ	.
=10	=10	=10	=10	=10
2.cc;	Hand,	2.g;	2.e;	2.C;
4b	den	8gL	4d	4G
.	.	8fJ	.	.
=11	=11	=11	=11	=11
4cc	A-	4e	4c	4A
4dd	-bend	4d	4g	4B
4ee	wie	4c	4g	8cL
.	.	.	.	8BJ
4ee	den	4e	8cL	8AL
.	.	.	8BJ	8GJ
=12	=12	=12	=12	=12
4.dd	Mor-	8aL	4A	8F#L
.	.	8g	.	8E
.	.	8a	4d	8F#
8cc	.	8f#J	.	8DJ
4b;	-gen	4g;	4d;	4G;
4b	tut	4g	4d	8GL
.	.	.	.	8FnJ
=13	=13	=13	=13	=13
4cc	er	8gL	4G	8EL
.	.	8fJ	.	8DJ
4b	mich	8gL	4c	8EL
.	.	8eJ	.	8CJ
4a	wohl	4c	8cL	8FL
.	.	.	8BJ	8GJ
4a	ver-	4c	8AL	8FL
.	.	.	8GJ	8EJ
=14	=14	=14	=14	=14
4.b	-sor-	8BL	8F#L	8D#L
.	.	8c#J	8GJ	8EJ
.	.	4d#	4A	4F#
8a	.	.	.	.
4g;	-gen,	4e;	4B;	4E;
8gL	sei	4dn	4G	4BB
8fJ	.	.	.	.
=15	=15	=15	=15	=15
4e	wo	8dL	4G	4C
.	.	8cJ	.	.
4a	ich	8cL	8AL	4F
.	.	8dJ	8BJ	.
8aL	woll'	8eL	8cL	8EL
8bJ	.	8fJ	8dJ	8DJ
4g#	im	4e	4B	8EL
.	.	.	.	8EEJ
=16	=16	=16	=16	=16
2.a;	Land.	2.e;	2.c#;	2.AA;
==|!	==|!	==|!	==|!	==|!
*-	*-	*-	*-	*-
!!!RWG: Key is interpreted using the Humdrum key tool.
!!!END: 1994/08/03
!!!EMD: Converted from MuseData to Humdrum Dec 19, 2000, by Andreas Kornstaedt using muse2kern.
!!!EED: Craig Stuart Sapp
!!!EEV: 2024/03/31
!!!ONB: Some non-unicode characters
